X: 4
T:Vo Sadu Ly, V Ohorode
S:A. Humenyuk
A:village of Levkivka, Vinnyts'ky, Ukraine
O:Ethnic Russian
M:2/4
L:1/8
Q:120
K:EMin
ccBB | AAAB | ccBB | A>c B/2A/2G/2F/2 | \
GGFF | EEEF | GG F/2A/2G/2F/2 | E2 E2 |]
